rospo-light/small/status/printer-error-symbolic.svg

<?xml version="1.0" encoding="UTF-8" standalone="no"?>
<svg
   xmlns:dc="http://purl.org/dc/elements/1.1/"
   xmlns:cc="http://creativecommons.org/ns#"
   xmlns:rdf="http://www.w3.org/1999/02/22-rdf-syntax-ns#"
   xmlns:svg="http://www.w3.org/2000/svg"
   xmlns="http://www.w3.org/2000/svg"
   xmlns:sodipodi="http://sodipodi.sourceforge.net/DTD/sodipodi-0.dtd"
   xmlns:inkscape="http://www.inkscape.org/namespaces/inkscape"
   width="22"
   height="22"
   version="1.1"
   id="svg6"
   sodipodi:docname="printer-error-symbolic.svg"
   inkscape:version="0.92.1 r">
  <metadata
     id="metadata12">
    <rdf:RDF>
      <cc:Work
         rdf:about="">
        <dc:format>image/svg+xml</dc:format>
        <dc:type
           rdf:resource="http://purl.org/dc/dcmitype/StillImage" />
      </cc:Work>
    </rdf:RDF>
  </metadata>
  <defs
     id="defs10" />
  <sodipodi:namedview
     pagecolor="#ffffff"
     bordercolor="#666666"
     borderopacity="1"
     objecttolerance="10"
     gridtolerance="10"
     guidetolerance="10"
     inkscape:pageopacity="0"
     inkscape:pageshadow="2"
     inkscape:window-width="769"
     inkscape:window-height="480"
     id="namedview8"
     showgrid="false"
     inkscape:zoom="10.727273"
     inkscape:cx="10.915169"
     inkscape:cy="11"
     inkscape:window-x="0"
     inkscape:window-y="0"
     inkscape:window-maximized="0"
     inkscape:current-layer="svg6" />
  <g
     id="g4491"
     transform="translate(3,2.5)">
    <path
       id="path2"
       d="m 4,1 v 2 h 8 V 1 Z M 2,4 C 1.5,4 1,4.5 1,5 v 4 c 0,0.5 0.5,1 1,1 H 3 V 8 h 7 V 6 h 4 v 4 c 0.5,0 1,-0.5 1,-1 V 5 C 15,4.5 14.5,4 14,4 Z m 2,5 v 5 h 6 V 9 Z"
       style="fill:#5c616c"
       inkscape:connector-curvature="0" />
    <path
       id="path4"
       d="m 11,7 v 4.01 L 11.25,13 h 1.5 L 13,11 V 7 Z m 0,7 v 2 h 2 v -2 z"
       class="warning"
       style="fill:#5294e2"
       inkscape:connector-curvature="0" />
  </g>
</svg>

<svg xmlns="http://www.w3.org/2000/svg" width="16" height="16" version="1.1">
 <path style="fill:#5c616c" d="M 4,1 V 3 H 12 V 1 Z M 2,4 C 1.5,4 1,4.5 1,5 V 9 C 1,9.5 1.5,10 2,10 H 3 V 8 H 10 V 6 H 14 V 10 C 14.5,10 15,9.5 15,9 V 5 C 15,4.5 14.5,4 14,4 Z M 4,9 V 14 H 10 V 9 Z"/>
 <path style="fill:#5294e2" class="warning" d="M 11,7 V 11.01 L 11.25,13 H 12.75 L 13,11 V 7 Z M 11,14 V 16 H 13 V 14 Z"/>
</svg>
